X: 246
T: No_9_Corn_Dance_Song_(e).krn
N: Derived from No_9_Corn_Dance_Song_(e).krn
%%abc-version 2.0
%%abcx-abcm2ps-target-version 5.9.1 (29 Sep 2008)
%%abc-creator hum2abc beta
%%abcx-conversion-date 2019/03/15 08:38:45
%%humdrum-veritas 2540393460
%%humdrum-veritas-data 2028741286
%%linebreak <none>
%%barnumbers 0
L: 1/8
M: 3/4
K: Eb clef=bass
[K:clef=bass][M:3/4]B,2B,G, G,F, [I:setbarnb 2]| 
E,E,E,2z2 | 
G,2B,G, G,F, ||  
[M:2/4]E,E,E,2 | 
G,F,G,2 | 
F,4 | 
E,C,C,2 ||  
[M:3/4]C, z E,E,F,2 | 
E,6 ||  
[M:2/4]E,B,,B,,2 | 
B,,2z2 :|]  
E,B,,B,,2 | 
B,, zz2 ]|:  
[M:3/4]G,2B,G, G,F, | 
E,E,E,2z2 | 
B,2B,G, G,F, ||  
[M:2/4]E,E,E,2 | 
G,F,G,2 | 
F,4 | 
E,3/C,/C,2 ||  
[M:3/4]C, z E,E,F,2 | 
E,6 | 
E,3/B,,/B,,2B,, z :|]  
[M:2/4]E,B,,B,,2 ||  
[M:3/4]B,,4B,, z | 
(B,3F,)B,2 | 
(B,3F,/) z/B,2 | 
[M:2/4]z2z3/ E,/ ]|:  
C2C2 | 
B,3B, | 
B,2F,2 ||  
[M:5/8]A,3F,/ z/ B, ||  
[M:2/4]A,F, E,F, | 
E,3E, | 
F,E, _D,F, | 
E,3A, | 
A,F,E,2 ||  
[M:5/8]B,A,2F,/ z/ B, ||  
[M:2/4]A,F, E,F, | 
E,3E, | 
F,E, _D,F, | 
E,3A, | 
A,F,E,2 ||  
[M:5/8]B,A,2F,/ z/ B, ||  
[M:2/4]A,F, E,F, | 
E,3E, ||  
[M:3/4]F,E, _D,F,E,2 | 
[M:2/4]B,4- ||  
[M:3/4](B,2F,2)B,2 | 
(B,3F,/) z/B,2 | 
[M:2/4]z2z3/ G,/ :|]  



